X:1
T:Kate's Theme
T:Kate's Theme
T:Syberia III
T:Inon Zur
T:Arrangement by Jennifer
C:Inon Zur
Z:Arrangement by Jennifer
%%score { 1 | 2 }
L:1/8
Q:1/4=90
M:4/4
K:F
V:1 treble nm="Piano" snm="Pno."
V:2 bass 
V:1
 [Aa]2 [Gg]2 [Ff]2 [De]2 | [Gg]2 [Ff]2 [Ee]2 [Cc]2- | [Cc]2 z3 z2 d | f6 eg | fe d4 z f | %5
 fecA [Bd]2 z f | fecA [Bd]2 z d/c/ | [Ad]8 | z4 z3 [Dd] | [Ff]6 eg | [Ff][Ee] d4 z f | %11
 [Ff]e[Cc]A [Dd]2 z f | [Ff][Ee][Cc][A,A] [Dd]2 z d/c/ | [Dd]8 | z4 z3 [Ff] | [ca]6 [Gg][Ff] | %16
 [ce]d [Cc]4 z [Ff] | [ca]6 [cg][Ff] | [ce]f [Ff]4 z f | [Af]ecA [Dd]2 z f | %20
 [Ff][Ee][Cc][A,A] [Dd]2 z d/c/ | [Ad]8 | z4 z3[Q:1/4=85] d | f6 eg |[Q:1/4=80] [Ff]4 [Ee]4 | %25
 z4[Q:1/4=90] [Fd]4- | [Fd]8 |] %27
V:2
!ped! D,A,DE!ped! FEDC!ped-up! |!ped! A,,E,A,E,!ped! A,E,A,,E,-!ped-up! | E,2 z6 | %3
!ped! D,A,DE!ped! FG E2!ped-up! |!ped! B,,F,B,F,!ped! B,,F,B,F,!ped-up! | %5
!ped! A,,E,A,E,!ped! B,,F,B,F,!ped-up! |!ped! A,,E,A,E,!ped! B,,F,B,F,!ped-up! | %7
!ped! D,A,DE!ped! FGBA!ped-up! |!ped! D,A,DE!ped! FE D2!ped-up! | %9
!mf!!ped! D,A,/D/ FD!ped! D,A,/D/ FD!ped-up! |!ped! B,,F,/B,/ DB,!ped! B,,F,/B,/ DB,!ped-up! | %11
!ped! A,,E,A,E,!ped! B,,F,/B,/ DB,!ped-up! |!ped! A,,E,A,E,!ped! B,,F,B,F,!ped-up! | %13
!ped! D,A,DE!ped! FGBA!ped-up! |!ped! D,A,DE!ped! FE D2!ped-up! | %15
!ped! F,,C,F,C,!ped! F,,F,C,F,!ped-up! |!ped! C,,G,CG,!ped! C,G,CG,!ped-up! | %17
!ped! F,,C,/F,/ A,F,!ped! F,,C,/F,/ A,F,!ped-up! |!ped! C,,G,CG,!ped! C,G,/C/ EC!ped-up! | %19
!ped! A,,E,A,E,!ped! B,,F,/B,/ DB,!ped-up! |!ped! A,,E,A,E,!ped! B,,F,/B,/ DB,!ped-up! | %21
!ped! D,,A,DE!ped! FGFE!ped-up! |!ped! D,,A,DE!mp!!ped! FED z!ped-up! | %23
!ped! D,A,DE!ped! FGE z!ped-up! |!ped! B,,2 F,2 A,,2 E,2!ped-up! | z4!mf!!ped! [A,,D,]4-!ped-up! | %26
 [A,,D,]8 |] %27

